src/svg/buildings/storage.svg

<?xml version="1.0" encoding="UTF-8" standalone="no"?>
<svg
   width="1200pt"
   height="1200pt"
   version="1.1"
   viewBox="0 0 1200 1200"
   id="svg372"
   sodipodi:docname="storage.svg"
   inkscape:version="1.2.2 (b0a8486541, 2022-12-01)"
   xmlns:inkscape="http://www.inkscape.org/namespaces/inkscape"
   xmlns:sodipodi="http://sodipodi.sourceforge.net/DTD/sodipodi-0.dtd"
   xmlns="http://www.w3.org/2000/svg"
   xmlns:svg="http://www.w3.org/2000/svg">
  <defs
     id="defs376" />
  <sodipodi:namedview
     id="namedview374"
     pagecolor="#ffffff"
     bordercolor="#666666"
     borderopacity="1.0"
     inkscape:showpageshadow="2"
     inkscape:pageopacity="0.0"
     inkscape:pagecheckerboard="0"
     inkscape:deskcolor="#d1d1d1"
     inkscape:document-units="pt"
     showgrid="false"
     inkscape:zoom="0.1911398"
     inkscape:cx="-674.89868"
     inkscape:cy="1920.0606"
     inkscape:window-width="2560"
     inkscape:window-height="1011"
     inkscape:window-x="0"
     inkscape:window-y="32"
     inkscape:window-maximized="1"
     inkscape:current-layer="svg372" />
  <path
     id="path350"
     d="M 50.397949 37.199707 C 39.60096 36.000508 30 45.602363 30 57.602051 L 30 105.60205 C 30 117.60204 39.60156 126 50.397949 126 L 1148.3979 126 C 1160.3979 126 1168.7959 116.39844 1168.7959 105.60205 L 1168.7959 57.602051 C 1168.7959 45.602063 1159.1943 37.204102 1148.3979 37.204102 L 50.397949 37.199707 z M 115.19971 174 L 115.19971 206.39795 L 926.39941 1025.9985 L 1084.8003 1025.9985 L 1084.8003 993.60059 L 273.60059 174 L 115.19971 174 z M 340.80029 174 L 474 308.39941 L 474 174 L 340.80029 174 z M 522 174 L 522 357.60059 L 678 513.60059 L 678 174 L 522 174 z M 726 174 L 726 562.80029 L 882 720 L 882 174 L 726 174 z M 930 174 L 930 768 L 1084.8003 925.19971 L 1084.8003 174 L 930 174 z M 115.19971 274.80029 L 115.19971 1026 L 270 1026 L 270 432 L 115.19971 274.80029 z M 318 480 L 318 1026 L 474 1026 L 474 637.19971 L 318 480 z M 522 686.39941 L 522 1026 L 678 1026 L 678 843.60059 L 522 686.39941 z M 726 891.60059 L 726 1026 L 859.19971 1026 L 726 891.60059 z M 50.397949 1075.1997 C 38.397961 1075.1997 30 1084.8013 30 1095.5977 L 30 1143.5977 C 30 1154.3986 39.60156 1164 50.397949 1164 L 1148.3979 1164 C 1160.3979 1164 1168.7959 1154.3984 1168.7959 1143.6021 L 1168.7959 1095.6021 C 1168.7959 1083.6021 1159.1943 1075.2041 1148.3979 1075.2041 L 50.397949 1075.1997 z " />
</svg>

<?xml version="1.0" encoding="UTF-8"?>
<svg width="1200pt" height="1200pt" version="1.1" viewBox="0 0 1200 1200" xmlns="http://www.w3.org/2000/svg">
 <path d="m115.2 1026h154.8v-594l-154.8-157.2z"/>
 <path d="m340.8 174 133.2 134.4v-134.4z"/>
 <path d="m474 1026v-388.8l-156-157.2v546z"/>
 <path d="m522 174v183.6l156 156v-339.6z"/>
 <path d="m678 1026v-182.4l-156-157.2v339.6z"/>
 <path d="m859.2 1026-133.2-134.4v134.4z"/>
 <path d="m726 174v388.8l156 157.2v-546z"/>
 <path d="m1084.8 174h-154.8v594l154.8 157.2z"/>
 <path d="m115.2 174v32.398l811.2 819.6h158.4v-32.398l-811.2-819.6z"/>
 <path d="m30 57.602v48c0 12 9.6016 20.398 20.398 20.398h1098c12 0 20.398-9.6016 20.398-20.398v-48c0-12-9.6016-20.398-20.398-20.398l-1098-0.003906c-10.797-1.1992-20.398 8.4023-20.398 20.402z"/>
 <path d="m50.398 1164h1098c12 0 20.398-9.6016 20.398-20.398v-48c0-12-9.6016-20.398-20.398-20.398l-1098-0.003906c-12 0-20.398 9.6016-20.398 20.398v48c0 10.801 9.6016 20.402 20.398 20.402z"/>
</svg>
